public/img/vk-black.svg

<svg width="28" height="18" viewBox="0 0 28 18" fill="none" xmlns="http://www.w3.org/2000/svg">
<path fill-rule="evenodd" clip-rule="evenodd" d="M27.6477 14.3381C27.0184 13.0867 26.1892 11.9435 25.1919 10.9524C24.8583 10.5801 24.509 10.2219 24.145 9.87861L24.101 9.83634C23.9658 9.70672 23.8324 9.57534 23.7008 9.44225C25.0641 7.57013 26.2308 5.56571 27.1827 3.46005L27.2209 3.37552L27.2475 3.28642C27.3736 2.87177 27.517 2.08358 27.008 1.37079C26.4805 0.635151 25.6372 0.502644 25.0715 0.502644H22.4722C21.928 0.478152 21.3898 0.624297 20.9348 0.920163C20.4798 1.21603 20.1312 1.64645 19.9389 2.14983C19.3795 3.46535 18.6791 4.71796 17.8497 5.88628V2.87862C17.8497 2.49024 17.8127 1.83913 17.3905 1.29083C16.8861 0.632866 16.1562 0.502644 15.6495 0.502644H11.5244C10.9861 0.490414 10.4637 0.683083 10.0653 1.04075C9.66694 1.39842 9.42312 1.89369 9.38436 2.42399L9.38089 2.47539V2.52679C9.38089 3.08081 9.60299 3.48975 9.78113 3.74676C9.86095 3.86214 9.9454 3.96723 9.99977 4.03348L10.0113 4.04833C10.0692 4.11915 10.1073 4.16599 10.1455 4.21853C10.2473 4.35332 10.3919 4.5635 10.4336 5.10495V6.78755C9.6055 5.41831 8.92654 3.96636 8.40803 2.45597L8.39877 2.43084L8.38952 2.40685C8.24839 2.04246 8.02282 1.51243 7.57051 1.10806C7.04302 0.634009 6.41835 0.502644 5.85037 0.502644H3.2129C2.63797 0.502644 1.94506 0.635151 1.42797 1.17317C0.920144 1.7032 0.862305 2.33831 0.862305 2.67415V2.82722L0.894695 2.97571C1.62498 6.32352 3.12988 9.45905 5.29164 12.1369C6.27997 13.6759 7.62174 14.9633 9.20812 15.8945C10.7945 16.8257 12.5808 17.3746 14.4222 17.4966L14.4696 17.5H14.5182C15.358 17.5 16.2337 17.428 16.8919 16.9951C17.7792 16.4103 17.8497 15.5136 17.8497 15.0658V13.7658C18.0776 13.9486 18.3599 14.1931 18.7057 14.522C19.1245 14.9355 19.4577 15.2942 19.7434 15.6072L19.8961 15.774C20.1182 16.0184 20.3368 16.2595 20.5358 16.4571C20.7857 16.705 21.0945 16.978 21.4809 17.1802C21.9008 17.3983 22.3415 17.4977 22.8089 17.4977H25.4475C26.0039 17.4977 26.8009 17.3675 27.362 16.7255C27.9728 16.0264 27.9265 15.1686 27.7345 14.5529L27.6998 14.4421L27.6477 14.3381ZM21.0309 14.4592C20.6724 14.0635 20.3032 13.6772 19.9238 13.3009L19.9204 13.2975C18.3506 11.8034 17.6184 11.5441 17.1001 11.5441C16.8237 11.5441 16.5194 11.5738 16.3216 11.8182C16.2325 11.9348 16.1741 12.0714 16.1516 12.2157C16.1237 12.3833 16.1113 12.5531 16.1145 12.7229V15.0658C16.1145 15.3571 16.066 15.4793 15.9295 15.5684C15.7478 15.6883 15.3603 15.7854 14.5286 15.7854C12.9487 15.6793 11.4168 15.2043 10.059 14.3997C8.70113 13.595 7.55608 12.4836 6.71796 11.1568L6.70871 11.142L6.69714 11.1283C4.68331 8.6531 3.27981 5.74949 2.59749 2.64673C2.60211 2.49823 2.6345 2.40799 2.68771 2.35316C2.74208 2.29605 2.87511 2.21609 3.2129 2.21609H5.85037C6.14304 2.21609 6.29573 2.28006 6.40563 2.37715C6.52825 2.4891 6.63699 2.67758 6.76655 3.01341C7.41435 4.89363 8.28888 6.65276 9.11829 7.9447C9.53242 8.59124 9.93961 9.12926 10.3075 9.50964C10.4914 9.69927 10.6707 9.8569 10.8431 9.96885C11.0085 10.0762 11.197 10.1619 11.3914 10.1619C11.4932 10.1619 11.6123 10.1505 11.7268 10.1014C11.8505 10.0474 11.9523 9.95411 12.016 9.83634C12.1352 9.62159 12.1687 9.30517 12.1687 8.89052V5.03756C12.1074 4.10316 11.8217 3.57656 11.5441 3.20303C11.4879 3.12832 11.43 3.05481 11.3706 2.98257L11.3555 2.96429C11.3062 2.90513 11.2591 2.84416 11.2144 2.78152C11.1574 2.71167 11.1232 2.62647 11.1161 2.53707C11.1251 2.4463 11.169 2.36239 11.2387 2.30251C11.3084 2.24262 11.3986 2.2113 11.4909 2.21495H15.6495C15.8878 2.21495 15.9676 2.27206 16.0081 2.32575C16.066 2.4 16.1145 2.55421 16.1145 2.87862V8.05093C16.1145 8.66549 16.4014 9.08128 16.8179 9.08128C17.2968 9.08128 17.6427 8.79457 18.2465 8.19829L18.2569 8.18687L18.2662 8.17659C19.6207 6.54571 20.7275 4.72865 21.5514 2.78267L21.5561 2.76896C21.618 2.59703 21.7352 2.44982 21.8897 2.34979C22.0443 2.24976 22.2277 2.2024 22.4121 2.21495H25.0727C25.4336 2.21495 25.5516 2.30633 25.5909 2.36002C25.6314 2.41713 25.6604 2.53936 25.5909 2.77924C24.6407 4.8769 23.4661 6.8682 22.087 8.71918L22.0778 8.73288C21.9448 8.93507 21.7978 9.15896 21.777 9.41483C21.7539 9.69127 21.8742 9.94143 22.0859 10.211C22.2397 10.4349 22.5578 10.7422 22.8806 11.054L22.9107 11.0837C23.2484 11.4104 23.6152 11.7645 23.909 12.1072L23.9171 12.1152L23.9252 12.1244C24.8013 12.9873 25.5299 13.985 26.0826 15.0783C26.1705 15.3753 26.1173 15.5284 26.0479 15.6072C25.9681 15.6986 25.7888 15.7843 25.4487 15.7843H22.8089C22.629 15.7886 22.4509 15.7473 22.2918 15.6643C22.0968 15.5523 21.9197 15.4122 21.7666 15.2485C21.6012 15.0852 21.4219 14.8876 21.2021 14.6465L21.032 14.4592H21.0309Z" fill="#4D4D4D"/>
</svg>

<svg width="28" height="18" fill="none" xmlns="http://www.w3.org/2000/svg"><path fill-rule="evenodd" clip-rule="evenodd" d="M27.648 14.338a13.022 13.022 0 00-2.456-3.386 17.85 17.85 0 00-1.047-1.073l-.044-.043c-.135-.13-.269-.26-.4-.394a33.85 33.85 0 003.482-5.982l.038-.084.026-.09c.127-.414.27-1.202-.239-1.915-.527-.736-1.37-.868-1.936-.868h-2.6a2.606 2.606 0 00-1.537.417 2.556 2.556 0 00-.996 1.23 19.923 19.923 0 01-2.09 3.736V2.88c0-.389-.036-1.04-.459-1.588-.504-.658-1.234-.788-1.74-.788h-4.126a2.113 2.113 0 00-1.459.538 2.061 2.061 0 00-.68 1.383l-.004.051v.052c0 .554.222.963.4 1.22.08.115.164.22.219.286l.011.015c.058.071.096.118.135.17.101.135.246.346.288.887v1.683a22.466 22.466 0 01-2.026-4.332l-.01-.025-.008-.024c-.142-.365-.367-.895-.82-1.299C7.044.634 6.419.503 5.85.503H3.213c-.575 0-1.268.132-1.785.67-.508.53-.566 1.165-.566 1.501v.153l.033.149a22.075 22.075 0 004.397 9.16 11.677 11.677 0 003.916 3.759 11.849 11.849 0 005.214 1.602l.048.003h.048c.84 0 1.716-.072 2.374-.505.887-.585.958-1.481.958-1.93v-1.3c.228.184.51.428.856.757.419.413.752.772 1.037 1.085l.153.167c.222.244.44.486.64.683.25.248.558.521.945.723.42.218.86.318 1.328.318h2.639c.556 0 1.353-.13 1.914-.773.61-.699.565-1.556.373-2.172l-.035-.11-.052-.105zm-6.617.121a30.019 30.019 0 00-1.107-1.158l-.004-.004c-1.57-1.494-2.302-1.753-2.82-1.753-.276 0-.58.03-.778.274a.877.877 0 00-.17.398c-.028.167-.04.337-.038.507v2.343c0 .291-.048.413-.184.502-.182.12-.57.217-1.401.217a10.096 10.096 0 01-4.47-1.385 9.948 9.948 0 01-3.341-3.243l-.01-.015-.01-.014a20.373 20.373 0 01-4.1-8.481c.004-.149.037-.239.09-.294.054-.057.187-.137.525-.137H5.85c.293 0 .446.064.556.161.122.112.231.3.36.636.648 1.88 1.523 3.64 2.352 4.932.414.646.822 1.184 1.19 1.565.183.19.363.347.535.459.165.107.354.193.548.193a.87.87 0 00.336-.06.602.602 0 00.289-.266c.12-.214.153-.53.153-.945V5.038c-.062-.935-.347-1.461-.625-1.835a6.491 6.491 0 00-.173-.22l-.016-.019a3.035 3.035 0 01-.14-.182.442.442 0 01-.099-.245.356.356 0 01.123-.234c.07-.06.16-.092.252-.088h4.159c.238 0 .318.057.358.11.058.075.107.23.107.554V8.05c0 .614.286 1.03.703 1.03.479 0 .825-.286 1.428-.883l.01-.011.01-.01a21.662 21.662 0 003.285-5.394l.005-.014a.838.838 0 01.334-.42.855.855 0 01.522-.134h2.66c.362 0 .48.091.519.145.04.057.07.18 0 .42a32.136 32.136 0 01-3.504 5.94l-.01.013c-.132.202-.28.426-.3.682-.023.276.097.526.309.796.154.224.472.531.795.843l.03.03c.337.326.704.68.998 1.023l.008.008.008.01c.876.862 1.605 1.86 2.158 2.953.088.297.034.45-.035.53-.08.09-.26.176-.6.176h-2.64a1.064 1.064 0 01-.516-.12 2.26 2.26 0 01-.525-.415c-.166-.164-.345-.361-.565-.603l-.17-.187h-.001z" fill="#4D4D4D"/></svg>
